X:1
T:Title
%%score 1 { 2 | 3 }
L:1/8
Q:1/4=130
M:3/2
K:Ab
V:1 treble nm="Grand Piano, Soprano"
V:2 bass nm="Choir Pad, Bass"
V:3 bass 
V:1
 [Ec]2 [EA]2 [Ec]2 [Ge]6 | [DB]2 [CA]2 [DB]2 [Cc]6 | [=Ec]2 [Fc]2 [Gc]2 [Fc]6 | %3
w: By~Lyman~Foster~Brackett,~1909 * * *|||
 [Fc]2 [GB]2 [A=d]2 [Ge]6 | [Ge]2 [Ae]2 [Be]2 [Ae]6 | [Ac]2 [Ad]2 [Ae]2 [Af]6 | %6
w: |||
 [Af]2 [Af]2 [A=e]2 [A_e]6 | [EA]2 [Ec]2 [DB]2 [CA]6- | [CA]4 z4 z4 |] %9
w: |||
V:2
 A,2 C2 A,2 B,6 | G,2 A,2 G,2 A,6 | B,2 B,2 B,2 A,6 | C2 E2 B,2 B,6 | B,2[K:treble] C2 D2 C6 | %5
 E2 D2 C2 D6 | D2 D2 D2 C6 | C2 G,2 G,2 A,6- | A,4 z4 z4 |] %9
V:3
 z2 A,2 z2 E,6 | E,2 E,2 E,2 A,,6 | C,2 =D,2 =E,2 F,6 | A,,2 B,,2 B,,2 E,6 | E,2 E,2 E,2 A,6 | %5
 _G,2 F,2 E,2 D,6 | D,2 D,2 D,2 E,6 | E,2 E,2 E,2 A,,6- | A,,4 z4 z4 |] %9

